src/images/pages/dmt5_signals/save_time.svg

<svg width="64" height="64" viewBox="0 0 64 64" fill="none" xmlns="http://www.w3.org/2000/svg">
<g clip-path="url(#clip0)">
<path d="M3.62448 60.4372C3.73408 61.0633 4.33038 61.482 4.95647 61.3724L14.354 59.7285C14.9801 59.6189 15.3988 59.0226 15.2892 58.3965L15.106 57.3472L17.2979 55.5673C18.1567 54.8519 19.2605 54.4995 20.3744 54.5832L35.6996 55.7033C35.7255 55.7056 35.7508 55.7061 35.7766 55.7067H35.871C39.2527 55.6994 42.545 54.622 45.2759 52.6274C45.3197 52.5954 45.3613 52.5599 45.4007 52.5217L63.654 34.6489C64.0896 34.2229 64.1171 33.5316 63.7181 33.0718C61.6116 30.6405 57.9675 30.2932 55.4401 32.2822L47.0558 38.5516C45.3124 36.4299 42.563 35.4099 39.858 35.8808L31.2877 37.3797C29.922 37.6169 28.5209 37.5439 27.1872 37.1662L26.229 36.8925C21.304 35.4779 15.9979 36.5794 12.0424 39.8375L11.6816 37.7737C11.572 37.1476 10.9757 36.7289 10.3496 36.8385L0.952631 38.4824C0.326539 38.5926 -0.0921668 39.1889 0.0174274 39.815L3.62448 60.4372ZM25.5995 39.1074L26.5578 39.3805C28.2253 39.8532 29.9771 39.9442 31.6845 39.6481L40.2548 38.1492C42.7103 37.7226 45.1331 39.0557 46.0869 41.3583L33.2571 43.6024C32.6681 43.7047 32.2555 44.2403 32.3073 44.8355C32.3584 45.4307 32.8563 45.8876 33.4538 45.8876C33.5207 45.8876 33.5875 45.882 33.6539 45.8702L47.7409 43.4063C48.367 43.2961 48.7857 42.6998 48.6761 42.0737C48.5845 41.5494 48.4378 41.0357 48.2389 40.5417L56.8299 34.1178C56.8378 34.1116 56.8457 34.1054 56.8535 34.0992C58.0945 33.1179 59.8199 33.0269 61.1569 33.8727L43.8495 50.8239C41.5261 52.5009 38.7357 53.4075 35.8705 53.4148H35.8272L20.5413 52.293C18.8384 52.1637 17.1518 52.7005 15.8372 53.7908L14.6513 54.7524L12.5117 42.5194C15.9238 39.0776 20.9409 37.7698 25.5995 39.1074ZM9.61282 39.3047L12.8237 57.6592L5.69385 58.9069L2.48302 40.5524L9.61282 39.3047Z" fill="#2A3052"/>
<path d="M34.8774 34.1115C43.5095 34.1115 50.5072 27.1144 50.5072 18.4823C50.5072 9.85019 43.51 2.85246 34.8779 2.8519C26.2458 2.8519 19.2481 9.84963 19.2476 18.4817C19.2571 27.1099 26.2492 34.102 34.8774 34.1115ZM34.8774 5.15394C42.2382 5.15394 48.2052 11.1215 48.2052 18.4823C48.2052 25.8431 42.2382 31.8101 34.8774 31.8095C27.5166 31.8095 21.5496 25.8425 21.5496 18.4817C21.558 11.1243 27.5205 5.16237 34.8774 5.15394Z" fill="#2A3052"/>
<path d="M34.0722 20.8984H40.5118C41.1475 20.8984 41.6629 20.383 41.6629 19.7473C41.6629 19.1117 41.1475 18.5963 40.5118 18.5963H35.1653V11.2378C35.1653 10.6016 34.6499 10.0868 34.0143 10.0868C33.3787 10.0868 32.8633 10.6016 32.8633 11.2378V19.69C32.8863 20.3476 33.4141 20.8759 34.0722 20.8984Z" fill="#2A3052"/>
</g>
<defs>
<clipPath id="clip0">
<rect width="64" height="64" fill="white"/>
</clipPath>
</defs>
</svg>

<svg width="64" height="64" fill="none" xmlns="http://www.w3.org/2000/svg"><g clip-path="url(#clip0)" fill="#2A3052"><path d="M3.624 60.437a1.15 1.15 0 001.332.935l9.398-1.644a1.15 1.15 0 00.935-1.331l-.183-1.05 2.192-1.78a4.303 4.303 0 013.076-.984l15.326 1.12c.025.003.05.003.077.004h.094a16.003 16.003 0 009.405-3.08c.044-.032.085-.067.125-.105l18.253-17.873a1.15 1.15 0 00.064-1.577 6.024 6.024 0 00-8.278-.79l-8.384 6.27a7.624 7.624 0 00-7.198-2.671l-8.57 1.499a9.243 9.243 0 01-4.1-.214l-.959-.273a15.558 15.558 0 00-14.187 2.944l-.36-2.063a1.15 1.15 0 00-1.332-.935L.953 38.482a1.152 1.152 0 00-.936 1.333l3.607 20.622zM25.6 39.107l.958.273c1.667.473 3.42.564 5.127.268l8.57-1.499a5.326 5.326 0 015.832 3.21l-12.83 2.243a1.15 1.15 0 10.397 2.268l14.087-2.464a1.152 1.152 0 00.935-1.332 7.61 7.61 0 00-.437-1.532l8.59-6.424.024-.019a3.726 3.726 0 014.304-.226L43.85 50.823a13.693 13.693 0 01-7.98 2.592h-.043l-15.286-1.122a6.587 6.587 0 00-4.704 1.498l-1.186.961-2.14-12.233A13.272 13.272 0 0125.6 39.107zm-15.987.198l3.21 18.354-7.13 1.248-3.21-18.355 7.13-1.247z"/><path d="M34.877 34.111c8.633 0 15.63-6.997 15.63-15.629s-6.997-15.63-15.63-15.63c-8.631 0-15.629 6.998-15.63 15.63.01 8.628 7.002 15.62 15.63 15.63zm0-28.957c7.361 0 13.328 5.967 13.328 13.328S42.238 31.81 34.877 31.81c-7.36 0-13.327-5.967-13.327-13.328.008-7.358 5.97-13.32 13.327-13.328z"/><path d="M34.072 20.898h6.44a1.151 1.151 0 000-2.302h-5.347v-7.358a1.15 1.15 0 10-2.302 0v8.452c.023.658.551 1.186 1.21 1.208z"/></g><defs><clipPath id="clip0"><path fill="#fff" d="M0 0h64v64H0z"/></clipPath></defs></svg>
